X: 34158
T: Reel For Grace
R: reel
M: 4/4
K: Dmajor
|:F|DFFF ADFA|dfff afed|f2 ed Bd ~d2|fedB BAFE|
DFFF ADFA|dfff afed|f2 ed Bd ~d2|1 d2 fe dBA:|2 d2 fe d3||
|:g|faaf a2 ba|afef b3a|faaf a2 ba|afde fede|
~f3d e2 fe|dfed B3d|AF ~F2 ABde|faeg fd d:|

